X:1
T:Title
%%score { ( 1 4 ) | ( 2 3 ) }
L:1/8
M:6/4
K:Ab
V:1 treble nm="Grand Piano"
V:4 treble 
V:2 bass 
V:3 bass 
V:1
 z6 z4[Q:1/4=135] [CA]2 | [CA]4 [DF]2 [CE]4 [Ec]2 | [Ec]4 [DB]2 [CA]4 e2 | e4 c2 c2 B2 A2 | %4
[M:5/4] [GB]4 [Ac]2 [GB]4 |[M:1/4] [Ge]2 |[M:6/4] e4 c2 c2 B2 [A,EA]2 | %7
 [A,FA]4 [DFB]2 [DFA]4 [A,DF]2 | z6 .[CA]6 |[M:5/4] c4 B2 [CA]4 |] %10
V:2
 z6 z4 [A,,A,]2 | [A,,A,]4 [A,,A,]2 [A,,A,]4 [A,,A,]2 | %2
 [E,A,]4 [E,G,]2 [A,,A,]4[K:treble] [A,CA]2 | [A,CA]4 [A,EA]2 [EA]2 [DE]2[K:bass] [A,CE]2 | %4
[M:5/4] [E,E]4 [E,E]2 [E,E]4 |[M:1/4] [E,D]2 | %6
[M:6/4][K:treble] [A,CA]4 [A,E]2[K:bass] [A,,A,]2 [B,,G,]2 C,2 | D,4 D,2 D,4 D,2 | %8
 C,4 A,,2 z2 _C2 [F,A,=C]2 |[M:5/4] [E,A,E]4 [E,G,D]2 [A,,A,]4 |] %10
V:3
 x12 | x12 | x10[K:treble] x2 | z6 .A,6[K:bass] |[M:5/4] x10 |[M:1/4] x2 | %6
[M:6/4][K:treble] x6[K:bass] x6 | x12 | z6 .F,6 |[M:5/4] x10 |] %10
V:4
 x12 | x12 | x12 | x12 |[M:5/4] x10 |[M:1/4] x2 |[M:6/4] z6 .E6 | x12 | %8
 [A,E]4 [A,CA]2 A,2- [A,G]2 A2 |[M:5/4] x10 |] %10

